22x22/apps/jetbrains-toolbox.svg

<svg xmlns="http://www.w3.org/2000/svg" width="22" height="22" version="1.1">
 <path style="fill:#fe4b71" d="m11.054074 1.0006654c-0.418899-0.010095-0.832508 0.094856-1.1955092 0.3033525l-6.7170554 3.8630317c-0.7064077 0.4062158-1.1415611 1.157013-1.1415094 1.9695162v7.6267292c0 0.812411 0.4351023 1.56311 1.1414094 1.969316l6.7170554 3.863232c0.3773412 0.217013 0.8014622 0.318088 1.2223802 0.303225 0.366954-0.01296 0.590422-0.209885 0.919387-0.399076l6.500054-4.000033c0.706407-0.406216 1.000059-0.687509 1.000008-1.500012v-7.5000618c1.7e-5 -0.2754837 0.449558-0.9073939 0.355905-1.1576645-0.182565-0.48787-0.530964-0.9068849-0.997861-1.1753711l-6.717055-3.8630317c-0.331275-0.1902514-0.705221-0.2945608-1.087509-0.3033525z"/>
 <path style="fill:#f4f4f7;opacity:.2" d="m11.053574 1.0010154a2.2828187 2.2739686 0 0 0-1.1950092 0.3027025l-6.7170554 3.8633317a2.2828187 2.2739686 0 0 0-1.1415094 1.9695162v0.5000041a2.2828187 2.2739686 0 0 1 1.1416094-1.9695162l6.7170554-3.8633317a2.2828187 2.2739686 0 0 1 1.1953092-0.3027375 2.2828187 2.2739686 0 0 1 1.087909 0.3027375l6.717055 3.8633317a2.2828187 2.2739686 0 0 1 1.14151 1.9695162v-0.5000041a2.2828187 2.2739686 0 0 0-1.14151-1.9695162l-6.717055-3.8633317a2.2828187 2.2739686 0 0 0-1.088009-0.3027025z"/>
 <path style="opacity:.2" d="m2 14.863129v0.500004a2.2828187 2.2739686 0 0 0 1.1416094 1.968766l6.7170554 3.863332a2.2828187 2.2739686 0 0 0 2.2832182 0l6.717055-3.863532a2.2828187 2.2739686 0 0 0 1.14151-1.969016v-0.500004a2.2828187 2.2739686 0 0 1-1.14161 1.968766l-6.717055 3.863332a2.2828187 2.2739686 0 0 1-2.2832182 0l-6.7170554-3.863532a2.2828187 2.2739686 0 0 1-1.1415094-1.969016z"/>
 <path style="fill:#ff8c2a" d="m2.2306206 6.1424521a2.2828187 2.2739686 0 0 0-0.2304706 0.9941492v7.7266257a2.2828187 2.2739686 0 0 0 1.1416109 1.968766l6.7168519 3.863313a2.2828187 2.2739686 0 0 0 1.1416112 0.303713v-9.981527z"/>
 <path style="fill:#17191e" d="m19.775686 6.1610073-8.776439 4.8779697 9.77e-4 9.960042a2.2828187 2.2739686 0 0 0 1.140634-0.303713l6.717829-3.863313a2.2828187 2.2739686 0 0 0 1.141611-1.968766v-7.7266257a2.2828187 2.2739686 0 0 0-0.224612-0.975594z"/>
 <path style="opacity:.2" d="m19.775615 6.1601563-8.775391 4.8769527v0.499999l8.775391-4.8769517a2.2828187 2.2739686 0 0 1 0.224609 0.9765626v-0.5a2.2828187 2.2739686 0 0 0-0.224609-0.9765626z"/>
 <path style="opacity:.2" d="m16.000265 16.199886-3.500029 1.865445v0.869148l3.500029-1.934586z"/>
 <path style="fill:#f4f4f7" d="m16.000265 15.699882-3.500029 1.865445v0.869148l3.500029-1.934587z"/>
 <path style="fill:#f4f4f7;opacity:.2" d="m2.2306926 6.1425782a2.2828187 2.2739686 0 0 0-0.2304688 0.9941407v0.5a2.2828187 2.2739686 0 0 1 0.2304688-0.9941407l8.7695314 4.8749998v-0.499999z"/>
</svg>

<svg xmlns="http://www.w3.org/2000/svg" width="22" height="22"><path style="fill:#fe4b71" d="M11.054 1a2.29 2.29 0 0 0-1.195.304L3.142 5.167A2.272 2.272 0 0 0 2 7.137v7.626c0 .813.435 1.563 1.141 1.97l6.717 3.863c.378.217.802.318 1.223.303.367-.013.59-.21.92-.399l6.5-4c.706-.406 1-.688 1-1.5V7.5c0-.276.449-.908.355-1.158a2.276 2.276 0 0 0-.998-1.175l-6.717-3.863A2.29 2.29 0 0 0 11.054 1z"/><path style="fill:#f4f4f7;opacity:.2" d="M11.054 1.001a2.283 2.274 0 0 0-1.195.303L3.142 5.167A2.283 2.274 0 0 0 2 7.137v.5a2.283 2.274 0 0 1 1.142-1.97l6.717-3.863a2.283 2.274 0 0 1 1.195-.303 2.283 2.274 0 0 1 1.088.303l6.717 3.863A2.283 2.274 0 0 1 20 7.637v-.5a2.283 2.274 0 0 0-1.141-1.97l-6.717-3.863A2.283 2.274 0 0 0 11.054 1z"/><path style="opacity:.2" d="M2 14.863v.5a2.283 2.274 0 0 0 1.142 1.969l6.717 3.863a2.283 2.274 0 0 0 2.283 0l6.717-3.863A2.283 2.274 0 0 0 20 15.362v-.5a2.283 2.274 0 0 1-1.141 1.97l-6.717 3.863a2.283 2.274 0 0 1-2.283 0L3.142 16.83A2.283 2.274 0 0 1 2 14.862z"/><path style="fill:#ff8c2a" d="M2.23 6.142a2.283 2.274 0 0 0-.23.995v7.726a2.283 2.274 0 0 0 1.142 1.969l6.717 3.863A2.283 2.274 0 0 0 11 21v-9.982z"/><path style="fill:#17191e" d="m19.776 6.161-8.777 4.878.001 9.96a2.283 2.274 0 0 0 1.14-.304l6.719-3.863A2.283 2.274 0 0 0 20 14.863V7.137a2.283 2.274 0 0 0-.224-.976z"/><path style="opacity:.2" d="M19.776 6.16 11 11.037v.5l8.776-4.877a2.283 2.274 0 0 1 .224.977v-.5a2.283 2.274 0 0 0-.224-.977zM16 16.2l-3.5 1.865v.87L16 17z"/><path style="fill:#f4f4f7" d="m16 15.7-3.5 1.865v.87L16 16.5z"/><path style="fill:#f4f4f7;opacity:.2" d="M2.23 6.143a2.283 2.274 0 0 0-.23.994v.5a2.283 2.274 0 0 1 .23-.994L11 11.518v-.5z"/></svg>
